X:1
T:At the End of Life’s Road
T:At the End of Life’s Road
T:Murray Jull & Scott Werdebaugh, 2017
T:D. A. (Sandy) Coverett, 2008
T:Creative Commons-NonCommercial-ShareAlike 4.0 International License Courtesy of the Cyber Hymnal™
T:Creative Commons-NonCommercial-ShareAlike 4.0 International License Courtesy of the Cyber Hymnal™
C:Murray Jull & Scott Werdebaugh, 2017
Z:Creative Commons-NonCommercial-ShareAlike 4.0 International License
Z:Courtesy of the Cyber Hymnal™
%%score ( 1 2 ) 3
L:1/8
Q:1/4=127
M:3/4
K:F
V:1 treble 
V:2 treble 
V:3 bass 
V:1
 [CF][EG] | [CA]3 [CA] [CA]2 | [CA]2 [EG]2 [DF]2 | [DG]3 [DF] [B,D]2 | [A,C]4 ([CF][EG]) | %5
w: 1.~At the|end of life’s|road We’ve a|glo- ri- ous|hope; It’s~the *|
w: 2.~When He|died on the|cross, Paid the|price for our|sin, Felt *|
w: 3.~With our|Fa- ther He|waits, And will|wel- come us|home Where *|
 [CA]3 [CA] [CA]2 | (A2 G2) [CF]2 | [EG]6- | [EG]2 z2 [CF]2 | ([CA]2 [CA]2) [CA]2 | [CA]4 [CF]2 | %11
w: dream of a|soul * set|free.|* A|pro- * mise|made by|
w: torn from the|Father * He|loved,|* He|knew~all * the|pain that|
w: sin, pain, and|want~are * no|more;|* We’ll|bask~in * the|warmth of|
 ([EG]2 [DF]2) [B,D]2 | ([A,C] [CF]3) [CF]2 | [CA]2 [CA]2 [CA]2 | [EG]2 [FA]3 [EG] | [CF]6- | %16
w: Jesus, * our|Lord, * A|pro- mise to|you and to|me.|
w: we~soon * would|share * And|rose then to|vic- t’ry and|life.|
w: His * great|love * And|live close to|Him ev- er-|more.|
 [CF]2 z2 ||"^Refrain" [CF]2 | [DB]3 [DB] [DB]2 | [DB]2 [DB]2 [EG]2 | [FA]2 [CF]2 [B,D]2 | %21
w: |||||
w: |O|yes, we’ve a|pro- mise That|with Him we’ll|
w: |||||
 [A,C]4 [CF]2 | [CA]4 [CA]2 | [CA]2 [CG]2 [CA]2 | [EG]6- | [EG]2 z2 [CF]2 | [CA]2 [CA]2 [CA]2 | %27
w: ||||||
w: be; We’ll|meet with|Him face to|face.|* What|sweet joy will|
w: ||||||
 [CA]2 [CG]2 [CF]2 | [DG]2 [DF]2 [B,D]2 | [A,C] [CF]3 [CF]2 | [CA]4 [CA]2 | [EG]2 [EA]2 [EG]2 | %32
w: |||||
w: fill us When|we’re re- u-|nit- ed Where|He’s pre-|pared us a|
w: |||||
 [CF]6- | [CF]2 z2"^Play 3 times" :| %34
w: ||
w: place.||
w: ||
V:2
 x2 | x6 | x6 | x6 | x6 | x6 | C4 x2 | x6 | x6 | x6 | x6 | x6 | x6 | x6 | x6 | x6 | x4 || x2 | x6 | %19
 x6 | x6 | x6 | x6 | x6 | x6 | x6 | x6 | x6 | x6 | x6 | x6 | x6 | x6 | x4 :| %34
V:3
 [F,A,][C,C] | [F,,F,]3 [F,,F,] [F,,F,]2 | [F,,F,]2 [C,C]2 [B,,B,]2 | [G,B,]3 [B,,B,] [B,,F,]2 | %4
 [F,,F,]4 ([F,A,][C,C]) | [F,,F,]3 [F,,F,] [F,,F,]2 | [F,,F,]2 [C,C]2 [F,A,]2 | [C,C]6- | %8
 [C,C]2 z2 [F,A,]2 | ([F,,F,]2 [F,,F,]2) [F,,F,]2 | [F,,F,]4 [F,A,]2 | ([C,C]2 [B,,B,]2) [B,,F,]2 | %12
 ([F,,F,] [F,A,]3) [F,A,]2 | [F,,F,]2 [F,,F,]2 [F,,F,]2 | [C,C]2 [F,C]3 [C,C] | [F,A,]6- | %16
 [F,A,]2 z2 || [F,A,]2 | [B,,F,]3 [B,,F,] [B,,F,]2 | [B,,F,]2 [B,,F,]2 [C,C]2 | %20
 [F,C]2 [F,A,]2 [B,,F,]2 | [F,,F,]4 [F,A,]2 | [F,,F,]4 [F,,F,]2 | [F,,F,]2 [C,E,]2 [F,,F,]2 | %24
 [C,C]6- | [C,C]2 z2 [F,A,]2 | [F,,F,]2 [F,,F,]2 [F,,F,]2 | [F,,F,]2 [C,E,]2 [F,A,]2 | %28
 [G,B,]2 [B,,B,]2 [B,,F,]2 | [F,,F,] [F,A,]3 [F,A,]2 | [F,,F,]4 [F,,F,]2 | [C,C]2 [A,C]2 [B,C]2 | %32
 [F,A,]6- | [F,A,]2 z2"^Play 3 times" :| %34

